!!!!SEGMENT: pl-kk--kk-i-111--012-002_anonim--deo-gratias-de-martyribus-2dum.krn
!!!cenid: 18xx:2582
!!!COM: Anonim
!!!COM-rismID: pe30004985
!!!CDT:
!!!CNT:
!!!GTL: Deo gratias
!!!OTL: De Martyribus 2dum
!!!OMV: 002
!!!PDT: 1824
!!!AGN: Sacred
!!!SMS-siglum: PL-Kk
!!!SMS-shelfmark: Kk.I.111
!!!SMS-shelfwork: 012-002 G
!!!SMS-variant:
!!!SMS-altvar:
!!!NIFC-rismSourceID: 1001156407
!!!NIFC-rismChildID: 1001157697
!!!NIFC-islandoraID: pl-kk:3371
!!!URL-pdf-islandora: https://repozytorium.nifc.pl/islandora/object/pl-kk%3A3371/datastream/PDF/view
!!!URL-scan: https://polish.musicsources.pl/pl/lokalizacje/galeria/rekopisy/5747 @EN{Scan on Polish Music Sources Website} @PL{Skany w portalu Dziedzictwo Muzyki Polskiej w otwartym dostępie}
!!!IIIF:
!!!ONB-nifc: UWAGA: A, T1, T2. Podział na poszególne Deo gratias. A: skan 0004 (m.in)
!!!AIN: 1 alto 2 tenor
!!!key:
**kern	**text	**kern	**text	**kern	**text
*part3	*part3	*part2	*part2	*part1	*part1
*staff3	*staff3	*staff2	*staff2	*staff1	*staff1
*Itenor	*	*Itenor	*	*Ialto	*
*I"Tenore Vagante.	*	*I"Tenore Chorale.	*	*I"Alto.	*
*I'T 2	*	*I'T 1	*	*I'A	*
*clefC4	*	*clefC4	*	*clefC3	*
*k[b-]	*	*k[b-]	*	*k[b-]	*
*d:	*	*d:	*	*d:	*
*M2/1	*	*M2/1	*	*M2/1	*
*met(c|)	*	*met(c|)	*	*met(c|)	*
*all\right	*	*all\right	*	*all\right	*
*2\right	*	*2\right	*	*2\right	*
=1-	=1-	=1-	=1-	=1-	=1-
!LO:TX:t=P:problem=kreska pseudotaktowa	!	!	!	!	!
!LO:TX:a:t=2	!	!	!	!	!
!	!	!LO:TX:t=P:problem=kreska pseudotaktowa	!	!LO:TX:a:t=3.	!
0r	.	1A	De-	0r	.
!	!	!LO:TX:t=P:problem=kreska pseudotaktowa	!	!	!
.	.	1B-X	.	.	.
=2-	=2-	=2	=2-	=2-	=2-
!LO:TX:t=P:problem=kreska pseudotaktowa	!	!LO:TX:t=P:problem=kreska pseudotaktowa	!	!LO:TX:t=P:problem=kreska pseudotaktowa	!
1A	De-	1A	.	1r	.
!LO:TX:t=P:problem=kreska pseudotaktowa	!	!LO:TX:t=P:problem=kreska pseudotaktowa	!	!LO:TX:t=P:problem=kreska pseudotaktowa	!
1B-	.	1G	.	1d	De-
=3	=3-	=3	=3-	=3	=3-
!	!	!LO:TX:t=P:problem=kreska pseudotaktowa	!	!LO:TX:t=P:problem=kreska pseudotaktowa	!
2A\	-o	1A	-o	1f	.
!LO:TX:t=P::problem=kreska pseudotaktowa&colon;między nutą a kropką	!	!	!	!	!
2.A\	gra-	.	.	.	.
!	!	!LO:TX:t=P:problem=kreska pseudotaktowa	!	!	!
.	.	1D	.	2d\	-o
4G/	.	.	.	.	.
!	!	!	!	!LO:TX:t=P::problem=kreska pseudotaktowa&colon;między nutą a kropką	!
4F/	.	.	.	2.a\	gra-
!LO:TX:t=P:problem=kreska pseudotaktowa	!	!	!	!	!
4D/	.	.	.	.	.
=4	=4-	=4	=4-	=4	=4-
!	!	!LO:TX:t=P:problem=kreska pseudotaktowa	!	!	!
2.A\	.	1F	gra-	.	.
.	.	.	.	4g\	.
.	.	.	.	4f\	.
!LO:TX:t=P:problem=kreska pseudotaktowa	!	!	!	!LO:TX:t=P:problem=kreska pseudotaktowa	!
4B-\	.	.	.	4d\	.
!	!	!LO:TX:t=P:problem=kreska pseudotaktowa	!	!	!
2.c\	.	1G	.	4g\	.
.	.	.	.	4f\	.
.	.	.	.	1e\	.
!LO:TX:t=P:problem=kreska pseudotaktowa	!	!	!	!	!
4B-\	-ti-	.	.	.	.
=5	=5-	=5	=5-	=5-	=5-
!	!	!LO:TX:t=P:problem=kreska pseudotaktowa	!	!	!
2A\	-as	1A	.	.	.
!LO:TX:t=P::problem=kreska pseudotaktowa&colon;między nutą a kropką	!	!	!	!	!
2.d\	De-	.	.	1f	.
!	!	!LO:TX:t=P:problem=kreska pseudotaktowa	!	!	!
.	.	1B-X	.	.	.
4c\	.	.	.	.	.
!	!	!	!	!LO:TX:t=P:problem=kreska pseudotaktowa	!
4B-\	.	.	.	2g\	.
!LO:TX:t=P:problem=kreska pseudotaktowa	!	!	!	!	!
4G/	.	.	.	.	.
=6	=6-	=6	=6-	=6	=6-
!	!	!LO:TX:t=P:problem=kreska pseudotaktowa	!	!	!
2c\	.	1A	.	2a\	.
!LO:TX:t=P:problem=kreska pseudotaktowa	!	!	!	!LO:TX:t=P:problem=kreska pseudotaktowa	!
2A/	-o	.	.	2c/	.
!	!	!LO:TX:t=P:problem=kreska pseudotaktowa	!	!	!
2B-\	gra-	1G	.	2d\	.
!LO:TX:t=P:problem=kreska pseudotaktowa	!	!	!	!LO:TX:t=P:problem=kreska pseudotaktowa	!
2c\	.	.	.	2e\	-ti-
=7	=7-	=7	=7-	=7	=7-
!	!	!LO:TX:t=P:problem=kreska pseudotaktowa	!	!	!
2A\	.	1F	.	2c\	-as
!LO:TX:t=P:problem=kreska pseudotaktowa	!	!	!	!LO:TX:t=P:problem=kreska pseudotaktowa	!
2d\	.	.	.	2f\	De-
!	!	!LO:TX:t=P:problem=kreska pseudotaktowa	!	!	!
2.en\	.	1E	.	2g\	-o
!	!	!	!	!LO:TX:t=P::problem=kreska pseudotaktowa&colon;między nutą a kropką	!
.	.	.	.	2.a\	.
!LO:TX:t=P:problem=kreska pseudotaktowa	!	!	!	!	!
4e\	-ti-	.	.	.	.
=8	=8-	=8	=8-	=8	=8-
2f\	-as	1.D	.	.	.
.	.	.	.	4g\	.
!LO:TX:t=P::problem=kreska pseudotaktowa&colon;między nutą a kropką	!	!	!	!LO:TX:t=P:problem=kreska pseudotaktowa	!
2.d\	De-	.	.	2f\	.
.	.	.	.	2.e\	gra-
4A\	-o	.	.	.	.
!	!	!LO:TX:t=P:problem=kreska pseudotaktowa	!	!	!
4A\	gra-	2C#X/	-ti-	.	.
!LO:TX:t=P:problem=kreska pseudotaktowa	!	!	!	!LO:TX:t=P:problem=kreska pseudotaktowa	!
4A\	-ti-	.	.	4e\	-ti-
=9	=9-	=9	=9-	=9	=9-
0A;	-as	0D	-as	0f#X;<	-as
==	==	==	==	==	==
*-	*-	*-	*-	*-	*-
!!!system-decoration: [(s1,s2,s3)]
!!!RDF**kern: > = above
!!!RDF**kern: < = below
!!!ENC: Kamil Watkowski
!!!END: 2021-08-04
!!!YEC: Copyright 2022 Narodowy Instytut Fryderyka Chopina (https://polishscores.org)
!!!YEM: License CC-BY-4.0 (https://creativecommons.org/licenses/by/4.0)
